src/assets/Cryptologos/Currency=lite.svg

<?xml version="1.0" encoding="utf-8"?>
<svg xmlns="http://www.w3.org/2000/svg" fill="none" height="26" viewBox="0 0 26 26" width="26">
<path d="M25.9295 13.0002C25.9295 20.1421 20.14 25.9318 12.9982 25.9318C5.85625 25.9318 0.0666504 20.1421 0.0666504 13.0002C0.0666504 5.8584 5.85625 0.0688095 12.9982 0.0688095C20.1399 0.0688095 25.9295 5.8584 25.9295 13.0002Z" fill="#BEBEBE" opacity="0.1"/>
<path d="M12.5459 15.1759L13.126 12.9914L14.4995 12.4896L14.8411 11.2059L14.8295 11.174L13.4775 11.6679L14.4516 8H11.689L10.4151 12.7867L9.35145 13.1753L9 14.4988L10.0628 14.1105L9.31201 16.9316H16.6644L17.1357 15.1759H12.5459Z" fill="#E4E4E4"/>
</svg>

<svg width="26" height="26" fill="none" xmlns="http://www.w3.org/2000/svg"><path opacity=".1" d="M25.93 13c0 7.142-5.79 12.932-12.932 12.932S.067 20.142.067 13 5.857.07 12.998.07C20.14.069 25.93 5.859 25.93 13z" fill="#BEBEBE"/><path d="m12.546 15.176.58-2.185 1.373-.501.342-1.284-.011-.032-1.353.494L14.452 8h-2.763l-1.274 4.787-1.064.388L9 14.5l1.063-.389-.751 2.822h7.352l.472-1.756h-4.59z" fill="#E4E4E4"/></svg>
